src/assets/images/card_mastercard.svg

<svg xmlns="http://www.w3.org/2000/svg" width="17" height="10" viewBox="0 0 17 10" fill="none">
  <g clip-path="url(#clip0_6570_27551)">
    <path fill-rule="evenodd" clip-rule="evenodd" d="M5.88672 8.92996H10.2452V1.07031H5.88672V8.92996Z" fill="#FF5F00"/>
    <path fill-rule="evenodd" clip-rule="evenodd" d="M6.15984 5C6.15984 3.40351 6.90675 1.98246 8.06667 1.07018C7.22309 0.403509 6.15105 0 4.98235 0C2.23195 0 0 2.23684 0 5C0 7.76316 2.23195 10 4.98235 10C6.14227 10 7.21431 9.59649 8.06667 8.92982C6.90675 8.01754 6.15984 6.59649 6.15984 5Z" fill="#EB001B"/>
    <path fill-rule="evenodd" clip-rule="evenodd" d="M15.9749 8.09649V7.90351H15.9222L15.8607 8.03509L15.7992 7.90351H15.7464V8.09649H15.7816V7.94737L15.8343 8.07018H15.8695L15.9222 7.94737V8.09649H15.9749ZM15.6586 8.09649V7.9386H15.7201V7.90351H15.5531V7.9386H15.6146V8.09649H15.6586ZM16.1331 5C16.1331 7.76316 13.9011 10 11.1507 10C9.99081 10 8.91877 9.59649 8.06641 8.92982C9.22632 8.01754 9.97323 6.59649 9.97323 5C9.97323 3.40351 9.22632 1.98246 8.06641 1.07018C8.91877 0.403509 9.98202 0 11.1507 0C13.9011 0 16.1331 2.23684 16.1331 5Z" fill="#F79E1B"/>
  </g>
  <defs>
    <clipPath id="clip0_6570_27551">
      <rect width="16.1333" height="10" fill="white"/>
    </clipPath>
  </defs>
</svg>

<svg xmlns="http://www.w3.org/2000/svg" width="17" height="10" fill="none"><g fill-rule="evenodd" clip-path="url(#a)" clip-rule="evenodd"><path fill="#FF5F00" d="M5.887 8.93h4.358V1.07H5.887z"/><path fill="#EB001B" d="M6.16 5c0-1.596.747-3.018 1.907-3.93A4.96 4.96 0 0 0 4.982 0C2.232 0 0 2.237 0 5s2.232 5 4.982 5c1.16 0 2.232-.404 3.085-1.07A4.99 4.99 0 0 1 6.16 5"/><path fill="#F79E1B" d="M15.975 8.096v-.192h-.053l-.061.131-.062-.131h-.053v.192h.036v-.149l.052.123h.036l.052-.123v.15zm-.316 0V7.94h.061v-.035h-.167v.035h.062v.157zM16.133 5c0 2.763-2.232 5-4.982 5a5 5 0 0 1-3.085-1.07A4.99 4.99 0 0 0 9.973 5a4.99 4.99 0 0 0-1.907-3.93A4.98 4.98 0 0 1 11.151 0c2.75 0 4.982 2.237 4.982 5"/></g><defs><clipPath id="a"><path fill="#fff" d="M0 0h16.133v10H0z"/></clipPath></defs></svg>
